packages/bezier-icons/icons/rotate.svg

<svg width="24" height="24" viewBox="0 0 24 24" fill="none" xmlns="http://www.w3.org/2000/svg">
<path fill-rule="evenodd" clip-rule="evenodd" d="M12.0031 2.2179C9.35211 2.2179 6.86011 3.2449 4.97611 5.1069L2.85711 2.9879C2.54211 2.6729 2.00311 2.8959 2.00311 3.3409V8.9679C2.00311 9.2439 2.22711 9.4679 2.50311 9.4679H8.13011C8.57511 9.4679 8.79811 8.9289 8.48311 8.6139L6.39011 6.5209C7.89711 5.0359 9.88611 4.2179 12.0031 4.2179C16.4141 4.2179 20.0031 7.8069 20.0031 12.2179C20.0031 16.6289 16.4141 20.2179 12.0031 20.2179C7.93001 20.2179 4.5578 17.1577 4.06505 13.2159C3.99655 12.6679 3.5554 12.2179 3.00311 12.2179C2.45083 12.2179 1.99785 12.6669 2.05258 13.2165C2.55523 18.2634 6.82607 22.2179 12.0031 22.2179C17.5171 22.2179 22.0031 17.7319 22.0031 12.2179C22.0031 6.7039 17.5171 2.2179 12.0031 2.2179Z" fill="#313234"/>
</svg>

<svg xmlns="http://www.w3.org/2000/svg" width="24" height="24" fill="none" viewBox="0 0 24 24"><path fill="#313234" fill-rule="evenodd" d="M12.003 2.218a9.93 9.93 0 0 0-7.027 2.889l-2.119-2.12a.5.5 0 0 0-.854.354v5.627a.5.5 0 0 0 .5.5H8.13a.5.5 0 0 0 .353-.854L6.39 6.52a7.94 7.94 0 0 1 5.613-2.303c4.411 0 8 3.589 8 8s-3.589 8-8 8c-4.073 0-7.445-3.06-7.938-7.002-.068-.548-.51-.998-1.062-.998s-1.005.449-.95.999c.502 5.046 4.773 9 9.95 9 5.514 0 10-4.485 10-10 0-5.513-4.486-10-10-10" clip-rule="evenodd"/></svg>
